!!!!SEGMENT: pl-wtm--r-2489_hertz-michal--mazur-c-dur.krn
!!!cenid: 18xx:3077
!!!COM: Hertz, Michał
!!!COM-rismid: pe41023359
!!!CDT: 1844/09/28-~1918
!!!CNT: Polish
!!!OTL: Mazur C-dur
!!!PDT:
!!!AGN:
!!!SMS-siglum: PL-Wtm
!!!SMS-shelfmark: R 2489
!!!SMS-shelfwork: W
!!!SMS-variant:
!!!SMS-altvar:
!!!NIFC-rismid: 1001082462
!!!URL-scan: http://repozytorium.nifc.pl/skany/pl-wtm-nut--r2489
!!!ONB-nifc:
**kern	**kern	**dynam
*part2	*part1	*part1
*staff2	*staff1	*
*I"[Piano]	*I"[Piano]	*
*clefF4	*clefG2	*
*k[]	*k[]	*
*C:	*C:	*
*M3/8	*M3/8	*
=1	=1	=1
!	!LO:TX:t=P:problem:all\left or right:global	!LO:DY:b:rj
8GG/	(>16ff\LL	p
.	16ee\JJ	.
8fL 8B 8G\	8dd\L)	.
8fJ 8B 8G\	8dd'>\J	.
=2	=2	=2
8C/	(>4ee\	.
8eL 8c 8G\	.	.
8eJ 8c 8G\	8gg\)	.
=3	=3	=3
8GG/	(>16ff\LL	.
.	16ee\JJ	.
8fL 8B 8G\	8dd\L	.
8fJ 8B 8G\	8ee\J)	.
=4	=4	=4
8C/	(>4cc\	.
8eL 8c 8G\	.	.
8eJ 8c 8G\	8g/)	.
=5	=5	=5
8GG/	(>16ff\LL	.
.	16ee\JJ	.
8fL 8B 8G\	8dd\L)	.
8fJ 8B 8G\	8dd'>\J	.
!!LO:LB:g=original
=6	=6	=6
8C/	(>4ee\	.
*tremolo	*	*
8eL 8c 8G\	.	.
8eJ 8c 8G\	8gg\)	.
=7	=7	=7
8GG/	(>16ff\LL	.
.	16ee\JJ	.
8fL 8B 8G\	8dd\L	.
8fJ 8B 8G\	8ee\J)	.
=8	=8	=8
8C/	8cc\	.
!LO:TX:b:i:t=Fine	!	!
4e 4c 4G\	4cc\	.
=9||	=9||	=9||
!	!	!LO:DY:b
8G\	16b\LL	f
.	16cc\JJ	.
8dL 8B\	8dd\L	.
8dJ 8B\	8ee\J	.
=10	=10	=10
8D\	16cc\LL	.
.	16a\JJ	.
8cL 8F#X\	8.dd\L	.
8cJ 8F#\	.	.
.	16cc\Jk	.
=11	=11	=11
8G\	16b\LL	.
.	16cc\JJ	.
8dL 8B\	8dd\L	.
8dJ 8B\	8ee\J	.
!!LO:LB:g=original
=12	=12	=12
8D\	16cc\LL	.
.	16a\JJ	.
8cL 8A\	8f#X/L	.
8BJ 8G\	8g/J	.
=13	=13	=13
8G\	16b\LL	.
.	16cc\JJ	.
8dL 8B\	8dd\L	.
8dJ 8B\	8ee\J	.
=14	=14	=14
8D\	16cc\LL	.
.	16a\JJ	.
8cL 8F#X\	8.dd\L	.
8cJ 8F#\	.	.
.	16cc\Jk	.
=15	=15	=15
8G\	16b\LL	.
.	16cc\JJ	.
8dL 8B\	8dd\L	.
8dJ 8B\	8ee\J	.
=16	=16	=16
8D\	16cc\LL	.
.	16a\JJ	.
8cL 8A\	8f#X/L	.
!	!LO:TX:b:i:t=D. C\nal\nFine	!
8BJ 8G\	8g/J	.
!!LO:LB:g=original
=17||	=17||	=17||
*k[b-]	*k[b-]	*
*M3/8	*M3/8	*
!	!	!LO:DY:b
8CC/	16g\LL	mf
.	16b-\JJ	.
8cL 8B- 8E\	8.dd\L	.
8cJ 8B- 8E\	.	.
.	16g\Jk	.
=18	=18	=18
8FF/	16b-\LL	.
.	16b-\JJ	.
8cL 8A 8F\	8a\L	.
8cJ 8A 8F\	8cc\J	.
=19	=19	=19
*rep	*	*
8CC/	16g\LL	.
.	16b-\JJ	.
8cL 8B- 8E\	8.dd\L	.
8cJ 8B- 8E\	.	.
.	16g\Jk	.
*Xrep	*	*
=20	=20	=20
*rep	*	*
8FF/	16b-\LL	.
.	16b-\JJ	.
8cL 8A 8F\	8a/L	.
8cJ 8A 8F\	8f/J	.
*Xrep	*	*
=21:|!|:	=21:|!|:	=21:|!|:
8CC/	[>8gg\L	.
8cL 8B- 8E\	16gg\L]	.
.	16cc\	.
8cJ 8B- 8E\	16ee\	.
.	16gg\JJ	.
=22	=22	=22
8FF/	16.bb-\L	.
.	32bb-\JK	.
8cL 8A 8F\	8aa\L	.
8cJ 8A 8F\	8ccc\J	.
!!LO:LB:g=original
=23	=23	=23
8CC/	[>8gg\L	.
8cL 8B- 8E\	16gg\L]	.
.	16cc\	.
8cJ 8B- 8E\	16ee\	.
.	16gg\JJ	.
=24	=24	=24
8FF/	16.bb-\L	.
.	32bb-\JK	.
8cL 8A 8F\	8aa\L	.
8cJ 8A 8F\	8ff\J	.
*Xtremolo	*	*
=:|!	=:|!	=:|!
*-	*-	*-
!!!system-decoration: {(s1,s2)}
!!!RDF**kern: > = above
!!!RDF**kern: < = below
!!!ENC:Anastazja Marusiak
!!!END:2021-10-22
!!!ENC: Antoni Szymański
!!!END: 2021-10-23
